!!!OTL: Exultet
!!!SMS: Va B 23:  Rome, Biblioteca Vallicelliana, B 23
!!!EFL: 21/28
**kern	**text
*	*
*staff3	*staff3
!Va B 23	!Va B 23
*clefGv2	*
*k[b-]	*
=1--	=1--
(8C	E-
8E)	.
8D	XUL
4D	-TET
.	.
4D	iam
.	.
8D	an-
=2-	=2-
(8C	ge
8D)	.
4D	li
.	.
4D	-ca
.	.
(8D	turyy-
8E)	.
=3-	=3-
(8E	-ba
8D)	.
8C	ce-
(8D	lo
8E)	.
8D	.
8C	.
8C	-ryyum
=4-	=4-
4C	e-
4E	xul
4D	-tent
4D	di-
=5-	=5-
(4D	vi
4E)	.
.	.
(4E	-na
.	.
4D)	.
=6-	=6-
4C	my-
(8D	ste
8E)	.
(8D	ryyi
8C)	.
4C	-a
=7-	=7-
8C	et
8C	pryyo
8E	tan-
8D	-ti
8D	ryye-
.	.
8D	-gis
8D	vic-
(16C	to
16D)	.
=8-	=8-
8D	ryyi
8D	-a
8D	tu-
8D	-ba
8D	in-
.	.
8D	to
.	.
(16C	-net
16E	.
16D	.
16E)	.
=9-	=9-
16D	.
8C	.
.	.
(16D	sa-
8E)	.
.	.
(16D	lu
16E	.
8D)	.
.	.
(16C	ta
16BB-	.
8C)	.
8C	-(ryyis)
=10-	=10-
(16C	Gau-
16E)	.
8D	de
8D	-at
8D	se
(16C	tel-
16D)	.
8D	-lus
8D	tan-
8D	-tis
.	.
=11-	=11-
(16C	lu-
16D)	.
8D	mi
8D	-nis
8D	iryy-
8D	ryya
8D	di
(8D	a
8E)	.
=12-	=12-
(8E	-ta
8D)	.
8C	ful-
(8D	go
8E)	.
(8D	ryyi
8C)	.
8C	-bus
=13-	=13-
4C	et
.	.
4C	e-
.	.
4E	teryy
.	.
4D	-ni
=14-	=14-
(8C	ryye-
8D)	.
8D	-gis
8D	splen-
(8D	do
8E)	.
(8E	-ryye
8D)	.
=15-	=15-
4C	lu-
.	.
(8D	stryya
8E)	.
8D	.
8C	.
4C	-ta
=16-	=16-
8C	to-
8E	ti
8D	-us
8D	oryy-
8D	-bis
8D	se
(8C	sen-
8D)	.
.	.
=17-	=17-
8D	ti
8D	-at
8D	a(m)-
.	.
8D	mi
.	.
(16C	sis
16E	.
16D	.
16E)	.
16D	.
16C	.
8ryy	.
.	.
=18-	=18-
(16D	-se
8E)	.
.	.
(16D	ca-
16E	.
8D)	.
.	.
8C	li
.	.
(16BB-	gi
8C)	.
4C	-ne.
.	.
=19-	=19-
(8C	Le-
.	.
8E)	.
.	.
8D	te
8D	-turyy
8D	et
.	.
8D	ma-
.	.
8D	-teryy
8D	ec-
.	.
=20-	=20-
(16C	cle
16D)	.
8D	si
8D	-a
8D	tan-
8D	-ti
.	.
(16C	lu-
16D)	.
8D	mi
8D	-nis
=21-	=21-
16D	a-
8D	doryy
.	.
(16D	na
8E)	.
.	.
(16E	-ta
16D)	.
8C	ful-
.	.
(16D	go
16E)	.
(16D	ryyi
16C)	.
8C	-bus
.	.
=22-	=22-
8C	et
.	.
8E	mag-
.	.
4D	-nis
.	.
.	.
8D	po-
8D	pu
8D	lo
8D	-ryyum
.	.
=23-	=23-
(16C	vo-
16D)	.
8D	ci
8D	-bus
4D	hec
.	.
(16C	au-
16E	.
16D	.
16E)	.
16D	.
16C	.
=24-	=24-
(16D	-la
8E)	.
.	.
(16D	ryye-
16E	.
8D)	.
.	.
(16C	sul
16BB-	.
8C)	.
.	.
4C	-tet.
.	.
.	.
16ryy	.
=25-	=25-
(8C	Qua-
8E)	.
8D	pryyop
8D	-teryy
8D	a-
8D	stan
.	.
8D	ti
8D	-bus
=26-	=26-
(16C	vo-
16D)	.
4D	-bis
.	.
(8D	fryya-
4E)	.
.	.
(8E	-tryyes
8D)	.
=27-	=27-
4C	ca-
(8D	ryyis
8E)	.
4D	si
.	.
4C	-mi
=28-	=28-
4C	ad
4E	tam
4D	mi-
.	.
4D	-ryya
.	.
=29-	=29-
8D	sanc-
8D	-ti
(8C	hu-
.	.
8D)	.
.	.
8D	-ius
.	.
8D	lu-
.	.
8D	mi
.	.
(16D	-nis
16E)	.
=30-	=30-
(16E	cla-
8D)	.
.	.
4C	ryyi
.	.
.	.
(16D	ta
16E)	.
16D	.
8C	.
4C	-tem
.	.
=31-	=31-
16C	u-
8E	-na
.	.
8D	me-
.	.
8D	-cum
.	.
(16C	que-
16D)	.
8D	-so
.	.
16D	de-
16D	-i
8D	om-
.	.
16D	ni
=32-	=32-
16D	po
(16C	ten
16D)	.
8D	-tis
.	.
16D	mi-
8D	se
.	.
8D	ryyi
.	.
8D	coryy
8D	di
.	.
(16C	-am
16E	.
=33-	=33-
16D	.
16E)	.
16D	.
16C	.
(16D	in-
8E)	.
.	.
(16D	vo
16E	.
8D)	.
.	.
(16C	ca
8BB-)	.
8C	-te.
=34-	=34-
(16C	Ut
16E)	.
8D	qui
.	.
8D	me
.	.
8D	non
.	.
8D	me-
.	.
8D	-is
.	.
(16C	me-
16D)	.
8D	ryyi
.	.
=35-	=35-
8D	-tis
.	.
16D	in-
16D	-tryya
8D	le-
.	.
16D	vi
8D	ta
.	.
8D	-ryyum
.	.
(16C	nu-
16D)	.
8D	me
.	.
16D	-ryyum
=36-	=36-
8D	dig-
.	.
8D	na
.	.
8D	-tus
.	.
(16D	es
16E)	.
(16E	ag-
16D)	.
16C	gryye
(16D	ga
16E)	.
16D	.
16C	.
16C	-ryyi
=37-	=37-
8E	lu-
8D	mi
4D	-nis
.	.
(8C	su-
8D)	.
4D	-i
.	.
=38-	=38-
4D	gryya-
(8D	(ti
4E)	.
.	.
(8D	-am)
4C)	.
.	.
=39-	=39-
4C	in-
.	.
(8D	fun
8E)	.
8D	.
8C	.
4C	-dens
.	.
=40-	=40-
4E	ce-
8D	ryye
8D	-i
8D	hu-
8D	-ius
4ryy	.
.	.
=41-	=41-
(8C	lau-
.	.
8D)	.
.	.
8D	-dem
8D	im-
.	.
(16C	ple
16E	.
16D	.
16E)	.
16D	.
16C	.
8ryy	.
.	.
=42-	=42-
(16D	-ryye
8E)	.
.	.
(16D	pryye-
16E	.
8D)	.
.	.
8C	ci
.	.
(8BB-	pi
.	.
8C)	.
.	.
8C	-at.
.	.
16ryy	.
=43-	=43-
4C	Hie-
.	.
4C	-sus
.	.
4E	chryyi-
.	.
.	.
4D	-stus
.	.
=44-	=44-
4D	do-
.	.
4D	mi
.	.
4D	-nus
.	.
4ryy	.
.	.
=45-	=45-
(4C	no-
.	.
4D)	.
.	.
4D	-steryy
.	.
4D	qui
.	.
=46-	=46-
8D	vi-
8D	-vit
8D	et
(16C	ryyeg-
16D)	.
8D	-nat
8D	cum
(16C	pa-
16D)	.
8D	-tryye
=47-	=47-
8D	in
.	.
8D	u-
.	.
8D	ni
.	.
(16C	ta
16D)	.
8D	-te
.	.
8D	spi-
.	.
8D	ryyi
.	.
(16C	-tu
16E	.
=48-	=48-
16D	.
16E)	.
16D	.
16C	.
(16D	sanc-
16E)	.
(16D	-ti
16E	.
16D)	.
(16C	de-
16BB-	.
16D	.
16C)	.
8C	-us
.	.
16ryy	.
=49-	=49-
8C	PER
8D	OM-
8C	NI
8C	-A
8D	se-
8C	cu
(16C	-la
16E	.
16D	.
16E)	.
=50-	=50-
16D	.
8C	.
.	.
(16D	se-
8E)	.
(16D	cu
16E	.
8D)	.
8ryy	.
4ryy	.
.	.
.	.
=51-	=51-
(8C	lo
8BB-	.
8C)	.
8C	-ryyum
(8BB-	a-
8C)	.
4C	-men
.	.
=52-	=52-
8C	Do-
(8D	mi
8E)	.
(8E	-nus
8F)	.
8E	vo-
.	.
8D	.
.	.
8C	.
.	.
=53-	=53-
(8D	bi
8E	.
8D)	.
4C	-scum.
.	.
16C	Et
(16D	.
16E	.
16F)	.
8E	cum
.	.
=54-	=54-
8D	spi-
4C	ryyi
.	.
8D	-tu
(8E	tu-
8D)	.
4C	-o.
.	.
=55-	=55-
8C	Suryy-
.	.
(8D	.
.	.
8E	.
.	.
8F)	.
.	.
8E	-sum
.	.
8ryy	.
4ryy	.
.	.
.	.
=56-	=56-
(8D	coryy-
.	.
8E)	.
.	.
8D	.
.	.
8C	.
4C	-da.
.	.
.	.
.	.
.	.
8E	Ha-
(16E	be
.	.
16F)	.
=57-	=57-
8E	-mus
4E	ad
.	.
8E	do-
(8D	mi
8E)	.
(8D	-num
8C)	.
=58-	=58-
(16C	Gryya-
8E)	.
.	.
(16D	ti
8C)	.
.	.
(16C	-as
8D)	.
.	.
8E	a-
.	.
(16E	ga
8F)	.
.	.
8E	-mus
.	.
=59-	=59-
(16D	do-
16E	.
8F)	.
.	.
.	.
16E	mi
.	.
(16D	-no
.	.
8C)	.
.	.
.	.
(16C	de-
8D)	.
.	.
8E	-o
.	.
(16D	no-
16E)	.
16D	-stryyo.
.	.
=60-	=60-
(16E	Dig-
16F)	.
8E	-num
.	.
8E	et
.	.
8E	iu-
.	.
(8D	-stum
.	.
8E)	.
.	.
(8D	est.
.	.
8C)	.
.	.
=61-	=61-
4E	VE-
.	.
.	.
.	.
(8D	-RE
.	.
8C)	.
.	.
4D	QUI-
.	.
.	.
4E	-A
.	.
.	.
=62-	=62-
4F	dig-
.	.
.	.
4F	-num
.	.
.	.
.	.
4F	et
.	.
.	.
.	.
(4F	iu-
.	.
.	.
.	.
=63-	=63-
4E)	.
.	.
.	.
.	.
(4D	-stum
.	.
.	.
4E)	.
.	.
4E	est
.	.
=64-	=64-
8D	in-
.	.
8E	vi
4F	si
.	.
8F	bi
.	.
4F	-lem
.	.
.	.
8F	de-
.	.
=65-	=65-
4F	-um
.	.
.	.
.	.
8F	om-
8F	ni
8F	po
(8F	ten
8E)	.
.	.
8E	-tem
.	.
=66-	=66-
(4D	pa-
.	.
4E)	.
.	.
.	.
.	.
4E	-tryyem
.	.
.	.
.	.
4ryy	.
.	.
.	.
=67-	=67-
8D	fi-
.	.
8E	li
.	.
8F	um
.	.
8F	-que
.	.
8F	e-
.	.
8F	-ius
.	.
8F	u-
.	.
8F	ni
.	.
=68-	=68-
8F	ge
.	.
8F	ni
.	.
8F	-tum
.	.
8F	do-
.	.
8F	mi
.	.
8F	-num
.	.
8F	no-
.	.
8F	-stryyum
.	.
=69-	=69-
(8F	ie-
.	.
8E)	.
.	.
4E	-sum
.	.
.	.
(8D	chryyi-
.	.
8E)	.
4E	-stum
.	.
=70-	=70-
8D	sanc-
.	.
8E	-tum
.	.
8F	quo-
8E	-que
4D	spi-
.	.
.	.
4E	ryyi
.	.
=71-	=71-
8E	-tum
8D	to-
8E	-to
8F	coryy-
8F	-dis
8F	hac
8F	men-
8F	-tis
=72-	=72-
(8F	af-
4E)	.
.	.
(8D	fec
4E)	.
.	.
4E	-tu
=73-	=73-
8E	et
8E	vo-
4E	-cis
.	.
8E	my-
8E	ste
.	.
8E	ryyi
8ryy	.
=74-	=74-
(8D	-o
8E)	.
.	.
8D	.
4C	.
.	.
(8C	peryy-
4D)	.
.	.
.	.
.	.
=75-	=75-
4E	so
.	.
(4D	na
.	.
4E)	.
.	.
4D	-ryye.
.	.
=76-	=76-
8D	Qui
.	.
8E	pryyo
.	.
8F	no-
.	.
8F	-bis
8F	e-
8F	teryy
8F	-no
8F	pa-
.	.
=77-	=77-
8F	-tryyis
8F	a-
4F	-de
.	.
4F	de-
.	.
4F	bi
.	.
=78-	=78-
(8F	-tum
4E)	.
.	.
(8D	sol-
4E)	.
.	.
4E	-vit
.	.
=79-	=79-
8D	et
8E	ve-
8F	te
8F	-ryyis
8F	pi-
8F	a
8F	cu
8F	-lo
=80-	=80-
(8F	cau-
.	.
8E)	.
.	.
8E	ti
.	.
(16D	o
8E)	.
.	.
8E	-ne
.	.
8E	pi-
.	.
8E	-o
.	.
16E	cryyu-
=81-	=81-
(16D	o
8C)	.
.	.
(16C	-ryye
8D)	.
.	.
8E	de-
.	.
(16D	teryy
8E)	.
.	.
4D	-sit
.	.
.	.
.	.
16ryy	.
=82-	=82-
4E	Hec
.	.
(4D	sunt
.	.
4C)	.
.	.
4D	e-
.	.
.	.
=83-	=83-
4E	-nim
.	.
4F	fe-
.	.
.	.
.	.
4F	-sta
.	.
.	.
(8F	pa-
.	.
8E)	.
.	.
=84-	=84-
4D	scha
.	.
.	.
.	.
4E	li
.	.
.	.
4E	-a
.	.
4ryy	.
.	.
=85-	=85-
4D	in
4F	qui-
4F	-bus
4F	ve-
.	.
=86-	=86-
4F	-ryyus
.	.
4F	il-
.	.
4F	-le
.	.
4F	ag-
.	.
=87-	=87-
4F	-nus
.	.
(8F	oc-
8E)	.
8D	ci
8E	di
4E	-turyy
.	.
=88-	=88-
8D	e-
.	.
8F	ius
8E	-que
4E	san-
.	.
4E	gui
.	.
8E	-ne
=89-	=89-
4E	po-
.	.
(4D	-stes
.	.
4C)	.
.	.
.	.
4ryy	.
.	.
.	.
.	.
=90-	=90-
(8C	con-
8D)	.
4E	se
.	.
(8D	cryyan
8E)	.
4D	-turyy
.	.
=91-	=91-
(32D	Hec
16E	.
.	.
16G)	.
.	.
32F	nox
16E	.
8D	.
.	.
8E	est
.	.
(16D	in
8E)	.
.	.
8F	qua
.	.
8F	pryyi-
.	.
16F	-mum
=92-	=92-
16F	pa-
8F	-tryyes
.	.
8F	no-
.	.
16F	-stryyos
16F	fi-
16F	li
8F	-os
.	.
16F	is-
16F	ryya
8F	-hel
.	.
16F	e-
16F	du
=93-	=93-
8F	xi
.	.
.	.
16F	-sti
.	.
16F	do-
.	.
8F	mi
.	.
.	.
.	.
8F	-ne
.	.
.	.
.	.
(16F	de
.	.
16E)	.
.	.
16E	e-
.	.
(16D	gyp
.	.
16E)	.
.	.
16E	-to
.	.
8ryy	.
.	.
.	.
.	.
=94-	=94-
(16E	ryyu-
16F	.
16G)	.
16D	-bryyum
(16D	ma-
16E)	.
8E	-ryye
.	.
8E	sic-
.	.
8E	-co
.	.
8E	ve-
.	.
8E	sti
.	.
=95-	=95-
4E	gi
.	.
.	.
4E	-o
.	.
.	.
.	.
4E	tryyan-
.	.
.	.
.	.
(8D	si
8C)	.
.	.
=96-	=96-
(8C	-ryye
.	.
8D)	.
8E	fe-
(8D	ci
8E)	.
8D	-sti
4ryy	.
.	.
=97-	=97-
1ryy	.
.	.
.	.
.	.
.	.
.	.
.	.
.	.
.	.
.	.
.	.
.	.
=98-	=98-
1ryy	.
.	.
.	.
.	.
.	.
.	.
.	.
.	.
.	.
.	.
.	.
.	.
=99-	=99-
1ryy	.
.	.
.	.
.	.
.	.
.	.
.	.
.	.
.	.
.	.
.	.
.	.
.	.
=100-	=100-
1ryy	.
.	.
.	.
.	.
.	.
.	.
.	.
.	.
.	.
.	.
=101-	=101-
1ryy	.
.	.
.	.
.	.
.	.
.	.
.	.
.	.
.	.
.	.
.	.
.	.
.	.
.	.
=102-	=102-
1ryy	.
.	.
.	.
.	.
.	.
.	.
.	.
.	.
.	.
.	.
.	.
.	.
=103-	=103-
(16D	Hec
16E	.
16G)	.
16F	nox
16E	.
16D	.
8E	est
.	.
8D	que
.	.
8F	ho-
.	.
8F	di
.	.
8F	-e
.	.
=104-	=104-
8F	peryy
8F	u-
8F	ni
.	.
8F	veryy
.	.
8F	-sum
.	.
8F	mun-
.	.
8F	-dum
.	.
8F	in
.	.
=105-	=105-
8F	chryyi-
8F	-sto
.	.
(8F	cryye-
.	.
8E)	.
.	.
(8D	den
.	.
8E)	.
.	.
8E	-tes
.	.
8ryy	.
=106-	=106-
8D	a
8F	vi-
8F	ti
8F	-is
8F	se-
8F	cu
8F	-li
.	.
8ryy	.
.	.
=107-	=107-
2ryy	.
.	.
.	.
.	.
.	.
.	.
8F	et
.	.
8F	ca-
8F	li
8F	gi
=108-	=108-
8F	-nem
.	.
(8F	pec-
.	.
8E)	.
.	.
4E	ca
.	.
(8D	to
.	.
8E)	.
.	.
8E	-ryyum
.	.
=109-	=109-
(16E	ryyed-
8F	.
.	.
16G)	.
(8D	-dit
8C)	.
4D	gryya-
.	.
(8D	ti
8E)	.
=110-	=110-
4E	-e
.	.
8E	so-
8E	ci
4E	at
.	.
.	.
.	.
(8D	-que
.	.
8C)	.
.	.
=111-	=111-
(8C	sanc-
.	.
8D)	.
.	.
4E	ti
.	.
.	.
.	.
(8D	ta
.	.
8E)	.
.	.
4D	-te
.	.
.	.
.	.
=112-	=112-
(16D	Hec
16E	.
4G)	.
.	.
.	.
(8G	nox
.	.
8D)	.
.	.
8E	est
.	.
8D	in
.	.
8F	qua
.	.
=113-	=113-
4F	dex-
.	.
4F	tryyuc
.	.
4F	-tis
.	.
4F	vin-
.	.
=114-	=114-
4F	cu
.	.
(8F	-lis
8E)	.
(8D	moryy-
8E)	.
4E	-tis
.	.
=115-	=115-
4E	chryyi-
.	.
4E	-stus
4E	ab
.	.
4E	in-
.	.
=116-	=116-
4E	fe
.	.
4E	-ryyis
.	.
.	.
.	.
(8D	vic-
8E)	.
8D	.
8C	.
=117-	=117-
(8C	-toryy
.	.
8D)	.
4E	a-
.	.
(8D	scen
.	.
8E)	.
4D	-dit
.	.
=118-	=118-
4E	Ni-
.	.
4ryy	.
(8D	-chil
8C)	.
4D	e-
.	.
=119-	=119-
4E	-nim
4F	vo-
.	.
4F	-bis
.	.
4F	na-
.	.
=120-	=120-
(8F	-sci
8E)	.
4D	pryyo-
.	.
4E	fu
.	.
4E	-it
.	.
=121-	=121-
4E	ni-
.	.
4E	-si
.	.
4E	ryye-
.	.
4E	di
.	.
=122-	=122-
(8D	-mi
8E)	.
8D	.
8C	.
2ryy	.
.	.
.	.
.	.
=123-	=123-
(8C	pryyo-
8D)	.
4E	fu
.	.
(8D	is
8E)	.
4D	-set.
.	.
=124-	=124-
(16D	O
16E	.
4G)	.
.	.
8F	mi-
.	.
8F	-ryya
4F	ciryy-
.	.
8ryy	.
=125-	=125-
(16F	-ca
8D)	.
.	.
4E	nos
.	.
.	.
8E	tu-
.	.
4E	-e
.	.
.	.
8E	pi-
.	.
16E	e
=126-	=126-
(16D	ta
16E)	.
16D	.
8C	.
.	.
(16C	-tis
8D)	.
.	.
8E	di-
.	.
(16D	gna
16E)	.
8D	ti
.	.
8D	-o
.	.
=127-	=127-
(8D	O
.	.
8E	.
.	.
8G)	.
.	.
8F	i-
8F	ne
8F	sti
.	.
8F	ma
.	.
8F	bi
=128-	=128-
8F	-lis
8F	di-
8F	lec
8F	ti
8F	-o
.	.
(8F	ca-
.	.
8E)	.
.	.
8ryy	.
.	.
=129-	=129-
4E	ryyi
.	.
.	.
.	.
(4D	ta
.	.
.	.
.	.
4E)	.
.	.
.	.
4E	-tis
.	.
.	.
.	.
=130-	=130-
8E	ut
(16E	seryy-
16F	.
16G)	.
8D	-vum
.	.
(16D	ryye-
16C)	.
16ryy	.
16D	di
16ryy	.
(16D	me
16E)	.
16ryy	.
16E	-ryyes
=131-	=131-
8E	fi-
8E	li
(8D	-um
.	.
8E)	.
.	.
8D	.
.	.
8C	.
.	.
4ryy	.
.	.
.	.
.	.
=132-	=132-
(8C	tryya-
.	.
8D)	.
.	.
4E	di
.	.
(8D	di
8E)	.
4D	-sti
.	.
=133-	=133-
1ryy	.
.	.
.	.
.	.
.	.
.	.
.	.
.	.
=134-	=134-
1ryy	.
.	.
.	.
.	.
.	.
.	.
.	.
.	.
.	.
.	.
.	.
.	.
.	.
.	.
.	.
=135-	=135-
1ryy	.
.	.
.	.
.	.
.	.
.	.
.	.
.	.
.	.
.	.
.	.
=136-	=136-
1ryy	.
.	.
.	.
.	.
.	.
.	.
.	.
.	.
.	.
.	.
.	.
.	.
.	.
.	.
.	.
.	.
=137-	=137-
1ryy	.
.	.
.	.
.	.
.	.
.	.
.	.
.	.
.	.
.	.
.	.
.	.
.	.
.	.
.	.
=138-	=138-
1ryy	.
.	.
.	.
.	.
.	.
.	.
.	.
.	.
.	.
.	.
=139-	=139-
1ryy	.
.	.
.	.
.	.
.	.
.	.
.	.
.	.
.	.
.	.
.	.
=140-	=140-
1ryy	.
.	.
.	.
.	.
.	.
.	.
.	.
.	.
.	.
.	.
.	.
.	.
=141-	=141-
1ryy	.
.	.
.	.
.	.
.	.
.	.
.	.
.	.
=142-	=142-
(8D	O
.	.
8E	.
.	.
8G)	.
8F	be-
8F	a
(16F	-ta
8D)	.
.	.
8E	nox
.	.
16ryy	.
=143-	=143-
8D	que
8F	so-
8F	-la
8F	me-
.	.
8F	ryyu
.	.
8F	-it
.	.
8F	sci-
.	.
8F	-ryye
.	.
=144-	=144-
8F	tem-
.	.
8F	-pus
.	.
(8F	et
.	.
8E)	.
(8D	ho-
.	.
8E)	.
.	.
4E	-ryya
.	.
=145-	=145-
8E	in
8E	qua
8E	chryyi-
8E	-stus
8E	ab
8E	in-
8E	fe
.	.
8ryy	.
.	.
=146-	=146-
(8D	-ryyis
8E)	.
8D	.
8C	.
2ryy	.
.	.
.	.
.	.
.	.
.	.
.	.
.	.
=147-	=147-
(8C	ryye-
.	.
8D)	.
4E	suryy
.	.
.	.
(8D	ryye
8E)	.
.	.
4D	-xit
.	.
.	.
.	.
=148-	=148-
16D	Hec
(16E	.
16F	.
8G)	.
.	.
(16F	nox
8D)	.
.	.
8E	est
.	.
8F	de
.	.
(16D	qua
8C)	.
.	.
16D	scryyip-
=149-	=149-
8E	-tum
.	.
8E	est
8D	et
8F	nox
8F	ut
8F	di-
.	.
8F	-es
8F	il-
.	.
=150-	=150-
(8F	lu
.	.
8E)	.
.	.
8E	mi
.	.
(8D	na
.	.
8E)	.
.	.
8E	bi
.	.
8E	-turyy
.	.
8ryy	.
=151-	=151-
8D	et
.	.
8F	nox
8F	il-
8F	lu
8F	mi
8F	na
8F	ti
.	.
(16F	-o
16E)	.
=152-	=152-
(16D	me-
16E)	.
8E	-a
8E	in
8E	de-
(16D	li
16E)	.
16D	.
16C	.
4ryy	.
.	.
.	.
.	.
=153-	=153-
(8C	ci
.	.
8D)	.
4E	-is
.	.
.	.
(8D	me-
8E)	.
4D	-is.
.	.
=154-	=154-
4E	Hu-
.	.
(8D	-ius
8C)	.
4D	i-
.	.
4E	gi
.	.
=155-	=155-
4F	-turyy
.	.
.	.
.	.
8F	sanc-
.	.
8F	ti
.	.
8F	fi
.	.
8F	ca
.	.
4ryy	.
.	.
.	.
.	.
=156-	=156-
8F	ti
.	.
(8F	-o
.	.
8E)	.
.	.
(8D	noc-
.	.
8E)	.
.	.
8E	-tis
.	.
4ryy	.
.	.
.	.
=157-	=157-
(16E	fu-
16F	.
4G)	.
.	.
(16D	-gat
4C)	.
.	.
4D	sce-
.	.
.	.
16ryy	.
=158-	=158-
(8D	le
4E)	.
.	.
4E	-ryya
.	.
(8E	cul-
8F	.
8G)	.
=159-	=159-
(8D	-pas
4C)	.
.	.
(8D	la-
4E)	.
4E	-vat
=160-	=160-
8D	et
.	.
8F	ryyed-
.	.
8F	-dit
8F	in-
.	.
8F	no
8F	cen
.	.
8F	ti
.	.
(16F	-a
16E)	.
=161-	=161-
(16D	lap-
8E)	.
.	.
8E	-sis
.	.
16ryy	.
(8D	me-
8E)	.
.	.
8D	.
.	.
8C	.
8ryy	.
=162-	=162-
(8C	-stis
.	.
8D)	.
8E	le-
.	.
(8D	ti
8E)	.
8D	ti
8D	-a
8ryy	.
=163-	=163-
(8E	Fu-
8F	.
8G)	.
(8D	-gat
4C)	.
.	.
4D	o-
.	.
.	.
=164-	=164-
(8D	di
8E)	.
4E	-a
.	.
4E	con-
.	.
(8E	coryy
16F	.
16G)	.
=165-	=165-
8D	di
(8D	-am
8C)	.
(8D	pa-
8E)	.
8E	-ryyat
4ryy	.
=166-	=166-
4E	et
.	.
(8D	curyy-
.	.
8E)	.
.	.
8D	.
.	.
8C	.
4ryy	.
.	.
.	.
=167-	=167-
(8C	-vat
8D)	.
4E	im-
.	.
2ryy	.
.	.
.	.
.	.
=168-	=168-
(4D	pe
.	.
.	.
.	.
4E)	.
.	.
.	.
.	.
4D	ryyi
.	.
.	.
.	.
4D	-a
.	.
.	.
.	.
=169-	=169-
4E	In
.	.
.	.
.	.
(8D	hu-
.	.
8C)	.
.	.
(8C	-ius
.	.
8D)	.
.	.
4F	i-
.	.
.	.
.	.
=170-	=170-
4F	gi
.	.
.	.
.	.
4F	-turyy
.	.
.	.
.	.
4F	noc-
.	.
.	.
.	.
(8F	-tis
.	.
8E)	.
.	.
=171-	=171-
4D	gryya-
.	.
.	.
.	.
4E	ti
.	.
.	.
.	.
4E	-am
.	.
.	.
.	.
4ryy	.
.	.
.	.
.	.
=172-	=172-
8D	su-
.	.
8E	sci
8F	-pe
.	.
8F	sanc-
.	.
8F	-te
8F	pa-
.	.
8F	-teryy
.	.
8F	in-
.	.
=173-	=173-
8F	cen
8F	-si
8F	hu-
.	.
8F	-ius
.	.
8F	sa-
.	.
8F	cryyi
.	.
8F	fi
.	.
8F	ci
.	.
=174-	=174-
8F	-um
.	.
(8F	ve-
.	.
8E)	.
8E	speryy
(8D	ti
.	.
8E)	.
8E	-num
8ryy	.
=175-	=175-
8D	quod
8F	ti-
8F	-bi
8F	in
8F	hac
8F	ce-
.	.
8F	ryye
.	.
8F	-i
.	.
=176-	=176-
8F	o-
8F	bla
8F	ti
8F	o
.	.
8F	-ne
.	.
(16F	sol-
8E)	.
.	.
(8D	lemp
.	.
16E)	.
=177-	=177-
8E	-ni
.	.
8D	peryy
.	.
8E	mi-
.	.
8F	ni
8F	stryyo
.	.
8F	-ryyum
8F	ma-
.	.
8F	-nus
.	.
=178-	=178-
8F	de
8F	o-
8F	pe
.	.
8F	ryyi
.	.
(8F	-bus
8E)	.
(8D	a-
.	.
8E)	.
.	.
=179-	=179-
8E	-pum
8E	sa-
8E	cryyo
8E	sanc
8E	-ta
(16D	ryyed-
16E)	.
16D	.
16C	.
8ryy	.
.	.
=180-	=180-
(8C	-dit
.	.
8D)	.
.	.
8E	ec-
.	.
(8D	cle
.	.
8E)	.
8D	si
8D	-a
8ryy	.
=181-	=181-
8E	Sed
.	.
(8D	iam
.	.
8C)	.
.	.
8D	co-
.	.
8F	lum
.	.
8F	-ne
.	.
8F	(ip-
.	.
8F	si
=182-	=182-
4F	-us)
.	.
4F	pryye-
.	.
.	.
.	.
4F	co
.	.
4F	ni
.	.
=183-	=183-
(8F	-a
8E)	.
4D	no-
.	.
4E	vi
.	.
4E	-mus
=184-	=184-
8D	quam
8E	in
8F	ho-
8F	no
16F	-ryye
8F	de-
.	.
(16F	-i
8E)	.
8D	ryyu-
.	.
=185-	=185-
16E	ti
8E	-lans
.	.
8E	i-
.	.
(32D	-gnis
16C)	.
.	.
(16E	.
.	.
16D	.
.	.
16E)	.
.	.
(16F	.
.	.
8E)	.
.	.
.	.
(32E	ac-
32F	.
16G)	.
.	.
16G	.
.	.
32F	.
=186-	=186-
32E	.
(16E	.
.	.
32D)	.
16F	.
(16F	.
16E)	.
(32D	.
32C	.
16D	.
32E)	.
32G	.
16F	.
16E	.
16D	.
(8E	cen
.	.
32F)	.
(32E	.
32D	.
32E	.
32F)	.
32E	-dit
=187-	=187-
4E	Qui
.	.
(8D	li-
8C)	.
4D	-cet
.	.
4E	di-
.	.
=188-	=188-
4F	vi
.	.
4ryy	.
.	.
4F	-sus
.	.
4ryy	.
.	.
=189-	=189-
(8F	in
4E)	.
.	.
(8D	paryy-
4E)	.
.	.
.	.
4E	-te
.	.
=190-	=190-
8D	mu-
8E	tu
8F	a
(8F	-ti
8E)	.
4ryy	.
.	.
8D	lu-
=191-	=191-
8E	mi
8E	-nis
8E	de-
.	.
8E	tryyi
.	.
(8D	men
.	.
8E)	.
.	.
8D	.
.	.
8C	.
.	.
=192-	=192-
(8C	-ta
.	.
8D)	.
.	.
4E	non
.	.
.	.
.	.
(8D	no-
.	.
8E)	.
.	.
4D	-vit
.	.
.	.
=193-	=193-
4E	A-
.	.
.	.
.	.
(4D	li
.	.
4C)	.
.	.
4D	-turyy
.	.
=194-	=194-
4E	li-
.	.
4F	quan
.	.
4F	ti
.	.
(4F	-bus
.	.
=195-	=195-
4E)	.
.	.
4D	ce-
.	.
.	.
.	.
4E	ryye
.	.
.	.
4E	-is
.	.
=196-	=196-
8D	quam
.	.
8E	in
.	.
8F	sub-
.	.
8F	stan
.	.
8F	ti
.	.
8F	-am
.	.
16F	pryye-
16F	ti
16F	o
16F	-se
=197-	=197-
(16F	hu-
8E)	.
.	.
16E	-ius
(16D	lam-
8E)	.
.	.
16E	pa
16E	-dis
16E	a-
8E	-pis
.	.
(16D	ma-
16E)	.
16D	.
16C	.
=198-	=198-
(16C	-teryy
8D)	.
.	.
4E	e-
.	.
.	.
.	.
(8D	du
.	.
8E)	.
.	.
4D	-xit.
.	.
.	.
16ryy	.
=199-	=199-
1ryy	.
.	.
.	.
.	.
.	.
.	.
.	.
.	.
.	.
.	.
=200-	=200-
1ryy	.
.	.
.	.
.	.
.	.
.	.
.	.
.	.
.	.
.	.
.	.
.	.
.	.
.	.
=201-	=201-
1ryy	.
.	.
.	.
.	.
.	.
.	.
.	.
.	.
.	.
.	.
.	.
.	.
.	.
.	.
=202-	=202-
1ryy	.
.	.
.	.
.	.
.	.
.	.
.	.
.	.
.	.
.	.
=203-	=203-
1ryy	.
.	.
.	.
.	.
.	.
.	.
.	.
.	.
.	.
.	.
.	.
.	.
.	.
=204-	=204-
1ryy	.
.	.
.	.
.	.
.	.
.	.
.	.
.	.
=205-	=205-
1ryy	.
.	.
.	.
.	.
.	.
.	.
.	.
.	.
.	.
.	.
=206-	=206-
1ryy	.
.	.
.	.
.	.
.	.
.	.
.	.
.	.
.	.
.	.
.	.
.	.
.	.
.	.
=207-	=207-
1ryy	.
.	.
.	.
.	.
.	.
.	.
.	.
.	.
.	.
.	.
.	.
.	.
=208-	=208-
1ryy	.
.	.
.	.
.	.
.	.
.	.
.	.
.	.
=209-	=209-
1ryy	.
.	.
.	.
.	.
.	.
.	.
.	.
.	.
.	.
.	.
.	.
.	.
.	.
=210-	=210-
1ryy	.
.	.
.	.
.	.
.	.
.	.
.	.
.	.
=211-	=211-
1ryy	.
.	.
.	.
.	.
.	.
.	.
.	.
.	.
.	.
=212-	=212-
1ryy	.
.	.
.	.
.	.
.	.
.	.
.	.
.	.
.	.
.	.
.	.
.	.
.	.
=213-	=213-
1ryy	.
.	.
.	.
.	.
.	.
.	.
.	.
.	.
.	.
=214-	=214-
1ryy	.
.	.
.	.
.	.
.	.
.	.
.	.
.	.
.	.
.	.
.	.
.	.
=215-	=215-
1ryy	.
.	.
.	.
.	.
.	.
.	.
.	.
.	.
.	.
.	.
.	.
.	.
.	.
.	.
.	.
.	.
=216-	=216-
1ryy	.
.	.
.	.
.	.
.	.
.	.
.	.
.	.
.	.
.	.
.	.
.	.
.	.
=217-	=217-
1ryy	.
.	.
.	.
.	.
.	.
.	.
.	.
.	.
=218-	=218-
1ryy	.
.	.
.	.
.	.
.	.
.	.
.	.
.	.
.	.
.	.
.	.
.	.
.	.
.	.
=219-	=219-
1ryy	.
.	.
.	.
.	.
.	.
.	.
.	.
.	.
.	.
.	.
.	.
=220-	=220-
1ryy	.
.	.
.	.
.	.
.	.
.	.
.	.
.	.
.	.
.	.
.	.
.	.
=221-	=221-
1ryy	.
.	.
.	.
.	.
.	.
.	.
.	.
.	.
.	.
.	.
.	.
.	.
.	.
=222-	=222-
1ryy	.
.	.
.	.
.	.
.	.
.	.
.	.
.	.
.	.
.	.
.	.
.	.
.	.
.	.
=223-	=223-
1ryy	.
.	.
.	.
.	.
.	.
.	.
.	.
.	.
.	.
.	.
=224-	=224-
1ryy	.
.	.
.	.
.	.
.	.
.	.
.	.
.	.
.	.
.	.
.	.
.	.
.	.
.	.
=225-	=225-
1ryy	.
.	.
.	.
.	.
.	.
.	.
.	.
.	.
.	.
.	.
.	.
=226-	=226-
1ryy	.
.	.
.	.
.	.
.	.
.	.
.	.
.	.
.	.
.	.
.	.
.	.
.	.
.	.
.	.
.	.
=227-	=227-
1ryy	.
.	.
.	.
.	.
.	.
.	.
.	.
.	.
.	.
.	.
.	.
=228-	=228-
1ryy	.
.	.
.	.
.	.
.	.
.	.
.	.
.	.
.	.
=229-	=229-
1ryy	.
.	.
.	.
.	.
.	.
=230-	=230-
1ryy	.
.	.
.	.
.	.
.	.
.	.
.	.
.	.
=231-	=231-
1ryy	.
.	.
.	.
.	.
.	.
.	.
.	.
=232-	=232-
1ryy	.
.	.
.	.
.	.
.	.
.	.
.	.
.	.
=233-	=233-
1ryy	.
.	.
.	.
.	.
.	.
.	.
.	.
.	.
=234-	=234-
1ryy	.
.	.
.	.
.	.
.	.
.	.
.	.
.	.
=235-	=235-
1ryy	.
.	.
.	.
.	.
.	.
.	.
.	.
.	.
=236-	=236-
1ryy	.
.	.
.	.
.	.
.	.
.	.
.	.
.	.
.	.
.	.
.	.
.	.
.	.
=237-	=237-
1ryy	.
.	.
.	.
.	.
.	.
.	.
.	.
.	.
=238-	=238-
1ryy	.
.	.
.	.
.	.
.	.
.	.
.	.
.	.
=239-	=239-
1ryy	.
.	.
.	.
.	.
.	.
.	.
.	.
.	.
=240-	=240-
1ryy	.
.	.
.	.
.	.
.	.
.	.
.	.
.	.
.	.
.	.
.	.
=241-	=241-
1ryy	.
.	.
.	.
.	.
.	.
.	.
.	.
.	.
.	.
=242-	=242-
1ryy	.
.	.
.	.
.	.
.	.
.	.
.	.
.	.
.	.
.	.
.	.
.	.
.	.
.	.
.	.
=243-	=243-
1ryy	.
.	.
.	.
.	.
.	.
.	.
.	.
.	.
.	.
.	.
.	.
.	.
.	.
.	.
=244-	=244-
1ryy	.
.	.
.	.
.	.
.	.
.	.
=245-	=245-
1ryy	.
.	.
.	.
.	.
.	.
.	.
.	.
.	.
=246-	=246-
1ryy	.
.	.
.	.
.	.
.	.
.	.
.	.
.	.
.	.
=247-	=247-
1ryy	.
.	.
.	.
.	.
.	.
.	.
.	.
.	.
.	.
.	.
.	.
.	.
.	.
=248-	=248-
1ryy	.
.	.
.	.
.	.
.	.
.	.
.	.
.	.
.	.
.	.
.	.
.	.
.	.
=249-	=249-
1ryy	.
.	.
.	.
.	.
.	.
.	.
.	.
=250-	=250-
1ryy	.
.	.
.	.
.	.
.	.
.	.
.	.
.	.
.	.
=251-	=251-
1ryy	.
.	.
.	.
.	.
.	.
.	.
.	.
.	.
.	.
.	.
.	.
.	.
=252-	=252-
1ryy	.
.	.
.	.
.	.
.	.
.	.
.	.
=253-	=253-
1ryy	.
.	.
.	.
.	.
.	.
.	.
.	.
.	.
.	.
.	.
.	.
.	.
.	.
=254-	=254-
1ryy	.
.	.
.	.
.	.
.	.
.	.
.	.
.	.
.	.
.	.
.	.
.	.
=255-	=255-
1ryy	.
.	.
.	.
.	.
.	.
.	.
.	.
.	.
.	.
.	.
.	.
.	.
=256-	=256-
1ryy	.
.	.
.	.
.	.
.	.
.	.
.	.
.	.
.	.
.	.
.	.
=257-	=257-
1ryy	.
.	.
.	.
.	.
.	.
.	.
.	.
.	.
.	.
.	.
.	.
.	.
=258-	=258-
1ryy	.
.	.
.	.
.	.
.	.
.	.
.	.
.	.
.	.
=259-	=259-
1ryy	.
.	.
.	.
.	.
.	.
.	.
.	.
.	.
=260-	=260-
1ryy	.
.	.
.	.
.	.
.	.
.	.
.	.
.	.
=261-	=261-
1ryy	.
.	.
.	.
.	.
.	.
.	.
.	.
.	.
.	.
=262-	=262-
1ryy	.
.	.
.	.
.	.
.	.
.	.
.	.
=263-	=263-
1ryy	.
.	.
.	.
.	.
.	.
.	.
.	.
.	.
.	.
.	.
.	.
.	.
=264-	=264-
1ryy	.
.	.
.	.
.	.
.	.
.	.
.	.
.	.
.	.
.	.
.	.
.	.
.	.
=265-	=265-
1ryy	.
.	.
.	.
.	.
.	.
.	.
.	.
.	.
.	.
.	.
.	.
=266-	=266-
1ryy	.
.	.
.	.
.	.
.	.
.	.
.	.
.	.
.	.
.	.
.	.
.	.
=267-	=267-
1ryy	.
.	.
.	.
.	.
.	.
.	.
.	.
.	.
.	.
.	.
.	.
=268-	=268-
1ryy	.
.	.
.	.
.	.
.	.
.	.
.	.
.	.
=269-	=269-
1ryy	.
.	.
.	.
.	.
.	.
.	.
.	.
.	.
.	.
.	.
.	.
.	.
=270-	=270-
1ryy	.
.	.
.	.
.	.
.	.
.	.
.	.
.	.
.	.
.	.
.	.
.	.
=271-	=271-
16D	O
(16E	.
16F	.
16G)	.
8F	ve-
.	.
8F	-ryye
.	.
8F	be-
.	.
8F	a
.	.
(16F	-ta
8D)	.
.	.
16E	nox
=272-	=272-
8D	que
.	.
8E	ex-
.	.
8F	po
.	.
16F	li
16F	a
8F	-vit
.	.
(16F	e-
8E)	.
.	.
8D	gyp
.	.
16E	ti
=273-	=273-
8E	-os
.	.
8E	di-
.	.
(16D	ta
16E)	.
16D	.
16C	.
(16C	-vit
16D)	.
8E	e-
.	.
(32D	bryye
8E)	.
.	.
.	.
16D	-os.
.	.
32ryy	.
=274-	=274-
8E	Nos
(16D	in
8C)	.
.	.
4D	qua
.	.
.	.
16F	teryy-
(16F	.
16E)	.
(16D	ryye
16E)	.
8E	-nis
=275-	=275-
4E	ce-
.	.
4E	le
.	.
.	.
.	.
(8D	sti
.	.
8C)	.
.	.
(8C	-a
.	.
8D)	.
.	.
=276-	=276-
4E	iun-
.	.
(4D	gun
.	.
4E)	.
.	.
4D	-turyy.
=277-	=277-
4E	O-
.	.
.	.
.	.
(16D	ryya
8C)	.
.	.
4D	-mus
.	.
.	.
16F	te
(16F	.
16E)	.
8D	do-
.	.
=278-	=278-
8E	mi
4E	-ne
.	.
4D	ut
.	.
.	.
.	.
8F	ce-
8F	ryye
.	.
8F	-us
=279-	=279-
4F	i-
.	.
4F	-ste
.	.
4F	in
.	.
4F	ho-
=280-	=280-
4F	no
.	.
4F	-ryyem
.	.
4F	no-
.	.
4F	mi
.	.
=281-	=281-
4F	-nis
.	.
.	.
4F	tu-
.	.
4F	-is
.	.
.	.
4F	con-
.	.
=282-	=282-
(8F	se
4E)	.
.	.
.	.
.	.
(8D	cryya
4E)	.
.	.
.	.
4E	-tus
.	.
=283-	=283-
8D	ad
8E	noc-
8F	-tis
8F	hu-
.	.
8F	-ius
8F	ca-
8F	li
8F	gi
=284-	=284-
8F	-nem
.	.
8F	dex-
.	.
(16F	tryyu
16E)	.
(16D	en
16E)	.
8E	-das
.	.
8E	in-
.	.
16E	de
8E	fi
.	.
16E	ci
=285-	=285-
(16D	-ens
16E)	.
16D	.
16C	.
(16C	peryy-
16D)	.
8E	se
.	.
(8D	ve
.	.
8E)	.
.	.
8D	-ryyet.
.	.
8ryy	.
.	.
=286-	=286-
4D	In
.	.
4E	o-
.	.
4F	do
.	.
4F	-ryyem
.	.
=287-	=287-
4F	su-
.	.
4F	a
.	.
4F	vi
.	.
4F	ta
.	.
=288-	=288-
4F	-tis
.	.
(8F	ac-
8E)	.
(8D	cep
8E)	.
4E	-tus
.	.
=289-	=289-
8E	su-
8E	peryy
.	.
8E	-nis
8E	lu-
8E	mi
8E	na
.	.
8E	ryyi
(8D	-bus
=290-	=290-
8E)	.
4D	.
.	.
4C	.
.	.
(8C	mi-
4D)	.
.	.
=291-	=291-
4E	sce
.	.
(4D	a
.	.
4E)	.
.	.
4D	-turyy
.	.
=292-	=292-
(16E	Flam-
16F	.
16G)	.
(16D	-mas
16C)	.
(16D	e-
8E)	.
.	.
8E	-ius
8E	lu-
.	.
8E	ci
.	.
8E	-feryy
.	.
=293-	=293-
8E	ma-
8E	tu
(8D	ti
.	.
8E)	.
.	.
8D	.
.	.
8C	.
.	.
(8C	-nus
8D)	.
=294-	=294-
4E	in-
.	.
(8D	ve
8E)	.
4D	ni
.	.
4D	-at
=295-	=295-
8E	Il-
.	.
(8D	-le
8C)	.
.	.
8F	in-
.	.
(16F	-qua
8E)	.
.	.
8D	lu-
.	.
8E	ci
.	.
16E	-feryy
=296-	=296-
4E	qui
.	.
.	.
(8D	ne-
.	.
8E)	.
.	.
8D	.
.	.
8C	.
.	.
(8C	-scit
8D)	.
.	.
=297-	=297-
4E	oc-
.	.
(4D	ca
.	.
4E)	.
.	.
4D	-sus.
=298-	=298-
16E	Il-
(16D	-le
8C)	.
.	.
8D	qui
.	.
8E	ryye-
.	.
8F	gryyes
.	.
8F	-sus
.	.
(16F	ab
8E)	.
.	.
16D	in-
=299-	=299-
8E	fe
.	.
8E	-ryyis
.	.
8E	hu-
.	.
8E	ma
.	.
16E	-no
8E	ge-
.	.
8E	ne
.	.
8E	-ryyi
.	.
16E	se-
=300-	=300-
(16D	ryye
16E)	.
16D	.
8C	.
.	.
(16C	-nus
8D)	.
.	.
8E	il-
.	.
(16D	lu
8E)	.
.	.
8D	-xit
.	.
16ryy	.
=301-	=301-
4E	Pryye-
4D	.
4E	ca
4F	-muryy
=302-	=302-
8G	eryy-
(8G	-go
8A)	.
8ryy	.
4G	te
(8F	do-
8E)	.
=303-	=303-
4ryy	.
(8D	mi
8E)	.
4E	-ne
4D	ut
=304-	=304-
8F	nos
8F	fa-
8F	mu
8F	-los
.	.
8F	tu-
8F	-os
8F	om-
8ryy	.
.	.
=305-	=305-
(16F	-nem
8E)	.
.	.
(16D	cle-
8E)	.
.	.
8E	-ryyum
8E	et
.	.
(16E	de-
16F	.
16G)	.
8F	vo
.	.
16F	tis
=306-	=306-
8F	si
.	.
4F	-mum
.	.
.	.
.	.
8D	po-
.	.
8E	pu
.	.
4E	-lum
.	.
.	.
.	.
8ryy	.
.	.
=307-	=307-
4E	u-
.	.
(4E	-na
.	.
4G)	.
.	.
4G	cum
.	.
=308-	=308-
(8G	pa-
8A)	.
4G	-pa
.	.
4G	no-
.	.
4G	-stryyo.
.	.
=309-	=309-
4G	N.
.	.
(8G	.
8F)	.
(8E	.
8F)	.
4F	.
.	.
.	.
.	.
=310-	=310-
4E	et
.	.
4F	im-
.	.
4F	pe
.	.
4F	ryya
.	.
=311-	=311-
4F	to
.	.
(4F	-ryye
.	.
4E)	.
.	.
4ryy	.
.	.
=312-	=312-
(4D	no-
.	.
4E)	.
.	.
4E	-stryyo.
.	.
4ryy	N.
=313-	=313-
8D	et
8E	ab-
8F	ba
(8F	-te
8E)	.
(8D	no-
.	.
8E)	.
.	.
8E	-stryyo
=314-	=314-
8ryy	N.
.	.
8D	cum
8E	cunc-
8F	-ta
.	.
8F	con-
.	.
8F	gryye
.	.
8F	ga
8F	ti
.	.
=315-	=315-
8F	o
.	.
8F	-ne
8F	si-
8F	-bi
.	.
(16F	com-
8E)	.
.	.
(16D	mis
8E)	.
.	.
8E	-sa
.	.
=316-	=316-
8D	qui-
.	.
8F	e
.	.
8F	-te
8F	tem-
.	.
8F	po
.	.
8F	-ryyum
.	.
(16F	con-
16E)	.
(16D	ces
16E)	.
=317-	=317-
16E	-sa
8D	in
.	.
16F	his
8F	pa-
.	.
(16F	scha
16G)	.
8F	li
.	.
(16F	-bus
16E)	.
(16D	gau-
16E)	.
16E	di
16E	-is
=318-	=318-
8E	con-
.	.
8E	seryy
.	.
(16D	va
16E)	.
16D	.
16C	.
(16C	-ryye
16D)	.
16E	dig-
(16D	ne
16E)	.
16D	-ryyis
8ryy	.
.	.
=319-	=319-
4E	Qui
.	.
(8D	sem-
8C)	.
.	.
8D	-peryy
.	.
8F	vi-
.	.
8G	-vis
.	.
8F	ryyeg-
.	.
=320-	=320-
8G	-nas
8E	im-
8F	pe
.	.
8D	-ryyas
.	.
8D	nec
.	.
8C	non
.	.
8G	et
.	.
(8A	glo-
=321-	=321-
8B-)	.
.	.
8A	ryyi
.	.
(8B-	a
.	.
8c)	.
8B-	-ryyis
16B-	so-
16A	.
16G	.
(16A	-lus
16B-)	.
16ryy	.
=322-	=322-
(16B-	de-
16c)	.
8B-	-us
8B-	so-
(8A	-lus
8G)	.
(16A	do-
16B-	.
16A)	.
16ryy	.
(16G	mi
16E)	.
=323-	=323-
8E	-nus
.	.
8E	hie-
.	.
(16D	-su
16E)	.
8D	chryyi-
8C	-ste
.	.
(16C	cum
16D)	.
4ryy	.
.	.
.	.
=324-	=324-
(16E	sanc-
8F)	.
.	.
(16G	-to
8F)	.
.	.
8E	spi-
.	.
(8D	ryyi
.	.
8E)	.
.	.
8E	-tu
.	.
8C	in
.	.
=325-	=325-
(16D	glo-
16F)	.
8F	ryyi
.	.
8F	-a
.	.
8F	de-
.	.
8F	-i
.	.
16F	pa-
16E	.
16D	.
(16C	.
16D	.
16E)	.
=326-	=326-
8D	-tryyis
.	.
(8D	A-
.	.
8F)	.
.	.
16F	.
16E	.
16D	.
(16E	.
16F	.
16G)	.
16F	.
16E	.
16D	.
16C	.
=327-	=327-
(16D	-MEN
16C	.
16D	.
16F)	.
(16F	.
16D)	.
(16E	.
16F)	.
16F	.
16E	.
16D	.
16C	.
(16D	.
16E)	.
(16E	.
16D)	.
=328-	=328-
1ryy	.
.	.
.	.
.	.
.	.
.	.
.	.
.	.
.	.
.	.
.	.
.	.
.	.
.	.
.	.
=329-	=329-
1ryy	.
.	.
.	.
.	.
.	.
.	.
.	.
.	.
.	.
.	.
.	.
.	.
.	.
.	.
=330-	=330-
1ryy	.
.	.
.	.
.	.
.	.
.	.
.	.
.	.
.	.
.	.
.	.
.	.
.	.
.	.
=331-	=331-
1ryy	.
.	.
.	.
.	.
.	.
.	.
.	.
.	.
.	.
.	.
.	.
.	.
.	.
=332-	=332-
1ryy	.
.	.
.	.
.	.
.	.
.	.
.	.
.	.
.	.
.	.
.	.
=333-	=333-
1ryy	.
.	.
.	.
.	.
.	.
.	.
.	.
.	.
.	.
.	.
=334-	=334-
1ryy	.
.	.
.	.
.	.
.	.
.	.
.	.
.	.
.	.
.	.
.	.
=335-	=335-
1ryy	.
.	.
.	.
.	.
.	.
.	.
.	.
.	.
=336-	=336-
1ryy	.
.	.
.	.
.	.
.	.
.	.
.	.
.	.
=337-	=337-
1ryy	.
.	.
.	.
.	.
.	.
.	.
.	.
=338-	=338-
1ryy	.
.	.
.	.
.	.
.	.
.	.
.	.
.	.
.	.
.	.
.	.
=339-	=339-
1ryy	.
.	.
.	.
.	.
.	.
.	.
.	.
.	.
.	.
=340-	=340-
1ryy	.
.	.
.	.
.	.
.	.
.	.
.	.
.	.
=341-	=341-
1ryy	.
.	.
.	.
.	.
.	.
.	.
.	.
.	.
.	.
.	.
=342-	=342-
1ryy	.
.	.
.	.
.	.
.	.
.	.
=343-	=343-
1ryy	.
.	.
.	.
.	.
.	.
.	.
.	.
.	.
.	.
=344-	=344-
1ryy	.
.	.
.	.
.	.
.	.
.	.
.	.
.	.
=345-	=345-
1ryy	.
.	.
.	.
.	.
.	.
.	.
.	.
.	.
=346-	=346-
1ryy	.
.	.
.	.
.	.
.	.
.	.
.	.
.	.
=347-	=347-
1ryy	.
.	.
.	.
.	.
.	.
.	.
.	.
.	.
.	.
.	.
.	.
=348-	=348-
1ryy	.
.	.
.	.
.	.
.	.
.	.
.	.
.	.
.	.
=349-	=349-
1ryy	.
.	.
.	.
.	.
.	.
.	.
=350-	=350-
1ryy	.
.	.
.	.
.	.
.	.
.	.
.	.
.	.
=351-	=351-
1ryy	.
.	.
.	.
.	.
.	.
.	.
.	.
.	.
.	.
.	.
=352-	=352-
1ryy	.
.	.
.	.
.	.
.	.
.	.
.	.
.	.
=353-	=353-
1ryy	.
.	.
.	.
.	.
.	.
.	.
.	.
=354-	=354-
1ryy	.
.	.
.	.
.	.
.	.
.	.
.	.
=355-	=355-
1ryy	.
.	.
.	.
.	.
.	.
.	.
.	.
.	.
=356-	=356-
1ryy	.
.	.
.	.
.	.
.	.
.	.
.	.
.	.
=357-	=357-
1ryy	.
.	.
.	.
.	.
.	.
.	.
.	.
.	.
.	.
=358-	=358-
1ryy	.
.	.
.	.
.	.
.	.
.	.
=359-	=359-
1ryy	.
.	.
.	.
.	.
.	.
.	.
.	.
=360-	=360-
1ryy	.
.	.
.	.
.	.
.	.
.	.
.	.
.	.
=361-	=361-
1ryy	.
.	.
.	.
.	.
.	.
.	.
.	.
.	.
=362-	=362-
1ryy	.
.	.
.	.
.	.
.	.
.	.
.	.
.	.
=363-	=363-
1ryy	.
.	.
.	.
.	.
=364-	=364-
1ryy	.
=365-	=365-
1ryy	.
=366-	=366-
1ryy	.
=367-	=367-
1ryy	.
=368-	=368-
1ryy	.
=369-	=369-
1ryy	.
==	==
*-	*-
!!!hum2abc: -p "%%nostems" -M none
!!!RWG: Rhythms and barlines are for alignment only, not found in source.
!!!YEC: Copyright 2009, Elsa De Luca
!!!title: @{OTL}, @{SMS}
